X:1
T:6 Partitas
T:6 Partitas – BWV 825-830
T:Johann Sebastian Bach
T:Partita 5 in G major, BWV 829
T:Creative Commons copyright waiver (CC0 1.0 Universal)
T:Creative Commons copyright waiver (CC0 1.0 Universal)
T:Creative Commons copyright waiver (CC0 1.0 Universal)
T:Creative Commons copyright waiver (CC0 1.0 Universal)
T:Creative Commons copyright waiver (CC0 1.0 Universal)
T:Creative Commons copyright waiver (CC0 1.0 Universal)
T:Creative Commons copyright waiver (CC0 1.0 Universal)
T:Creative Commons copyright waiver (CC0 1.0 Universal)
T:Creative Commons copyright waiver (CC0 1.0 Universal)
T:Creative Commons copyright waiver (CC0 1.0 Universal)
T:Creative Commons copyright waiver (CC0 1.0 Universal)
T:Creative Commons copyright waiver (CC0 1.0 Universal)
T:Creative Commons copyright waiver (CC0 1.0 Universal)
T:Creative Commons copyright waiver (CC0 1.0 Universal)
C:Johann Sebastian Bach
Z:Creative Commons copyright waiver (CC0 1.0 Universal)
%%score { ( 1 3 ) | ( 2 4 5 ) }
L:1/8
Q:1/4=138
M:3/4
K:G
V:1 treble nm="Harpsichord" snm="Hch."
V:3 treble 
V:2 bass 
V:4 bass 
V:5 bass 
V:1
!f!"^Allegro vivace."!>(! d/c/B/A/ !wedge!G!>)! z!p! !wedge![B,D] z | %1
 !wedge![CE] z !wedge![B,D] z z2 |!<(! !>!d/c/B/A/G/F/E/D/[I:staff +1]C/B,/A,/G,/!<)! | %3
!f! [D,F,A,C][I:staff -1] z[I:staff +1] [D,G,B,][I:staff -1] z z2 | %4
!p!!<(![I:staff +1] G,/[I:staff -1] B,/C/D/ E/F/G/A/ B/c/d/e/!<)! | %5
!<(![I:staff +1] F,/ A,/B,/C/[I:staff -1] D/E/F/G/ A/B/c/d/!<)! | %6
!<(![I:staff +1] E,/ G,/A,/B,/[I:staff -1] C/D/E/F/ G/A/B/c/!<)! | %7
!mf! z/ c/A/F/D/[I:staff +1] A,/F,/D,/ D,,/ C/B,/A,/ | %8
[I:staff -1] z/ B/G/F/ D/[I:staff +1]B,/ G,/D,/ G,,/F,/E,/D,/ | %9
[I:staff -1] z/ B/G/E/ ^C/[I:staff +1] G,/E,/C,/ ^C,,/ B,/A,/G,/ | %10
[I:staff -1] z/ A/F/E/[I:staff +1] ^C/A,/ F,/^C,/ F,,/E,/D,/C,/ | %11
[I:staff -1] z/ A/F/D/[I:staff +1] B,/ F,/D,/B,,/ B,,,/ A,/G,/F,/ | %12
[I:staff -1] z/ G/E/D/[I:staff +1] B,/G,/ E,/B,,/ E,,/D,/^C,/B,,/ | %13
[I:staff -1] z/ G/E/^C/[I:staff +1] A,/ E,/^C,/A,,/ A,,,/!>(! G,/F,/E,/!>)! |[I:staff -1] x6 | x6 | %16
!f!!>(! a/g/^f/e/ d!>)! z !wedge![FA] z | !wedge![GB] z !wedge![FA] z z2 | x6 | %19
 !wedge![^CEG] z !wedge![A,DF] z z2 |!p! z/ F/E/F/ G/F/E/F/ G/"_cresc."E/A/B/ | %21
 ^c/G/F/G/ A/G/F/G/ A/F/B/c/ | d/A/G/A/ B/A/G/A/ B/G/^c/d/ | e/B/A/B/ ^c/B/A/B/ c/A/d/e/ | %24
!f! f/g/a z .f.g.a | b/a/b !wedge!^c!wedge!e!wedge!f!wedge!g |"_dim.""_dim." a/g/a Bfba | %27
 g/f/g Aeag |!p! f/e/d/^c/ d/"_cresc."f/A/c/ d/f/A/c/ | =f/e/d/^c/ d/f/^G/c/ d/f/A/d/ | %30
 =f/e/d/^c/ d/f/^G/c/ d/f/e/d/ |!f! ^c/ x4 x3/2 | d/ x4 x3/2 | e/ x4 x3/2 | =f/ x4 x3/2 | %35
"_cresc." [Bd^g] x4 x |!ff! !wedge!a!p!A/B/ =c/d/e- eG- | GF/^G/ ^A/B/^c/d/ e/d/c/e/ | %38
 d"_cresc." z z2 f z | a z z2 ^d z |!f!!>(! b/a/g/f/ !wedge!e z!>)! x2 | %41
 !wedge![Ac] z !wedge![GB] z z2 |!<(! b/a/g/f/e/d/c/B/A/G/F/E/!<)! | %43
!f! !wedge![^DFA] z !wedge![B,EG] z z2 | %44
!p![I:staff +1] E,/ G,/A,/B,/ C/[I:staff -1]D/E/F/ G/A/B/c/ | %45
[I:staff +1] F,/ A,/B,/C/[I:staff -1] D/"_cresc."E/F/G/ A/B/c/d/ | %46
[I:staff +1] G,/ B,/C/[I:staff -1]D/ E/F/G/A/ B/c/d/e/ | %47
[I:staff +1] A,/[I:staff -1] C/D/E/ =F/G/A/B/ c/d/e/=f/ |!f! ^d/a/^f/d/!>(! B4-!>)! | %49
!mf! B/[I:staff +1]A,/B,/[I:staff -1]^C/ ^D/E/F/G/ A/G/F/A/ | %50
"_cresc." G/F/G/A/ B/c/d/e/ =f/e/d/f/ | e/d/e/^f/ ^g/a/b/c'/ d'/c'/b/d'/ | %52
!f! c'/b/a/^g/ a/=g/=f/e/ d/c/B/A/ | z/ d/c/B/ c/B/A/=G/ =F/E/D/C/ | %54
"_dim." z/ =F/E/D/ E/D/[I:staff +1]C/B,/A,/^G,/^F,/E,/ | %55
[I:staff -1] z/[I:staff +1] B,/A,/^G,/ A,/=F,/E,/D,/C,/B,,/A,,/^G,,/ | %56
!p![I:staff -1] z/ =f/e/d/ e/d/c/B/ A/d/e/f/ | B/d/e/=f/ G/f/e/d/ c/d/e/c/ | %58
 A/d/c/B/ c/B/A/G/ =F/B/c/d/ | G/B/c/d/ E/d/c/B/ A/B/c/A/ |"_cresc." =FB/c/ d2- d/G/F/E/ | %61
 =FB/c/ d2- d/c/B/d/ |!f! G/c/B/A/ G/=F/E/D/ C/E/D/C/ |!<(! B,/C/D/E/ =F/G/A/B/ c/d/e/=f/!<)! | %64
!ff!!>(! g/=f/e/d/ c!>)! z!mf! !wedge![EG] z | !wedge![=FA] z !wedge![EG] z z2 | %66
!<(! g/=f/e/d/c/B/A/G/=F/E/D/C/!<)! |!f!!>(! !wedge![B,D=F] z !wedge![G,CE] z z2!>)! | %68
!p! z cecAF- | F/B/d/B/ F/B/d/B/ E/B/d/B/ |"_cresc." cac'afd- | d/g/b/g/ d/g/b/g/ c/b/a/g/ | %72
!f! !wedge!f!p!D/E/ F/G/A- AC- | C/"_cresc."_B,/C/D/ E/F/G/A/ _B/A/G/B/ | A/G/F/G/ A/_B/c- c_E- | %75
 E/D/=E/F/ G/A/_B/c/ d/c/B/d/ | c/_B/A/B/ c/d/_e- eG- |!<(! G/F/E/D/ E/F/G/A/ =B/c/d/_e/!<)! | %78
!f! =fG z Bcd | e/d/e !wedge!FABc |"_dim." d/F/E/F/ G/F/E/F/ G/E/A/B/ | %81
 c/E/D/E/ F/E/D/E/ F/D/G/A/ |!p! B/A/G/F/"_cresc." G/B/D/F/ G/B/D/F/ | %83
 _B/A/G/F/ G/B/^C/F/ G/B/D/F/ |!f! _B/A/G/F/ G/B/^C/F/ G/B/A/G/ | %85
 !fermata![df]2 z/!f! f/g/a/ g/f/e/d/ | !wedge!d'f!>(!g.B.A.f!>)! |!p! G/g/f/g/ e/g/d/g/ c/g/B/g/ | %88
 A/f/e/f/ d/f/c/f/ B/f/A/c/ | !>!!wedge!=f/"_cresc."G/^F/G/ A/G/B/G/ c/G/d/G/ | %90
 !wedge!e/F/E/F/ G/F/A/F/ B/F/c/F/ | !wedge!d/E/D/E/ F/E/G/E/ A/E/B/E/ |!f! c2- c/D/A/c/ B/A/G/F/ | %93
!>(! E/D/C/B,/[I:staff +1] A,/G,/F,/E,/ D,/C,/B,,/A,,/!>)! | G,,6 |] %95
[M:4/4][Q:1/4=76]"^Allegretto"[I:staff -1] g/ | %96
!f!!>(! g3/2f/4e/4 (3d/c/B/!>)! (3c/B/A/ (3B/G/A/ (3B/A/G/ d>Md | %97
 (3g/a/b/"_cresc." (3d/e/=f/ (3e/a/b/ (3c'/b/a/ (g P^f/>)g/{g} a2- | %98
!f!!>(! (3a/c/B/ (3c/B/A/!>)!!<(! Ba-!<)! (3a/"_dim."g/a/ (3b/a/g/ (3f/e/f/ (3g/f/e/ | %99
!mf! (3d/^c/d/ (3e/d/c/!<(! B/A/g- (3g/!<)!"_dim."f/g/ (3a/g/f/ (3e/d/e/ (3f/e/d/ | %100
!mf! (3=c/B/c/ (3d/c/B/!<(! A/G/=f-!<)! (3f/e/d/"_cresc." (3e/d/^c/ (3d/c/B/ (^g/>a/) | %101
!f!!>(! dP^c- (3c/d/e/ G/>G/-!>)!!p! e2- e/>A/d/>=c/ | B2- B/>g/f/>g/ A2- A/>d/e/>f/ | %103
!f!!>(! G2-!>)!!p! G/>B/A/>c/ B4- |"_cresc." (3B/^c/d/ (3e/d/c/ (3d/e/f/ (3g/f/e/ a/ x3/2 x2 | %105
!f! _b/>^g/a- a/>^c'/d'/>f/ Mg/>a/ ^c/>d/!>(! (fPe/>)d/!>)! | %106
 (3d/^c/B/ (3=c/B/A/ (3B/A/G/ (3A/G/F/ (3G/F/E/ F/>d/!<(! E/>G/d/>^c/!<)! | %107
!>(! d3/2A/4G/4!>)! (3A/F/E/ (3F/D/^C/ D7/2 :: A/ | %109
!p! A3/2B/4!<(!^c/4 (3d/e/f/ (3e/f/g/!<)! (3f/e/d/ a/>!>(!=c/ B/>g/c/>f/!>)! | %110
 (3d/g/f/ (3g/a/b/ (3e/c'/b/ (3a/g/f/!<(! (eP^d)!<)!!>(! Mb2-!>)! | %111
"_dim." (3b/=f/e/ (3f/e/d/ e/>b/d- (3d/!<(!E/^F/ (3^G/A/B/ (3c/A/B/ (3c/d/!<)!e/ | %112
 (3f/c/B/ (3c/B/A/!>(! B/>f/A-!>)!!p! (3A/B,/^C/ (3^D/E/F/ (3G/E/F/ (3G/A/B/ | %113
"_cresc." (3c/A/^G/ (3A/=F/E/ F/=fe/ (3^d/=c/B/ (3c/A/^G/ (3A/B/^c/ (3d/e/^f/ | %114
 (3e/c/B/ (3c/A/^G/ A/a=g/ (3f/c/B/ (3c/A/^G/ (3A/^d/e/ (3f/=g/a/ | %115
 (3g/e/^d/ (3e/c/B/ c/!f!c'b/ ^a2 (3z/ =a/b/ (3c'/b/a/ | %116
 (3b/a/g/ (3f/g/e/-!>(! [eg][^df]!>)! !arpeggio![Be-]2 (3e/B/A/ (3G/F/G/ | %117
!p! ^c/>G/d/>G/ e/>G/F/>E/ F/>D/G/>D/ A/>D/!<(! (3=c/B/A/!<)! | %118
!mf! B/>=F/c/>F/ d/>F/E/>D/ ME>E c2- | %119
 (3c/E/D/ (3E/D/C/!<(! Dc-!<)! (3c/"_dim."B/c/ (3d/c/B/ (3A/G/A/ (3B/A/G/ | %120
 (3=F/E/F/ (3G/F/E/!<(! D/C/_B-!<)!"_cresc." (3B/A/G/ (3A/G/^F/ (3G/F/E/ ^c/>d/ | %121
!mf! G/4F/4E/4F/4G/4F/4E/ D2- (3D/"_cresc."D/E/ (3F/F/G/ (3A/A/B/ (3c/c/d/ | %122
!f! _e/>^c/d- d/>f/g/>B/ M^c/>d/F/>G/!>(! (BPA/>)G/!>)! | %123
!p! G/>E/D/>G/ C/>G/B,/>G/!<(! A,/>F/ (3G/F/!<)!!>(!E/{G} PF>G!>)! | %124
 G3/2B/4A/4 (3B/d/c/ (3d/g/f/ g7/2 ::[M:3/8][Q:3/8=84]!<(! d/e/f/!<)! |!f!!>(! g/d/B/d/G/B/!>)! | %127
 d/B/!<(!g/d/b/g/!<)! |!f! a/f/!>(!d/f/A/d/!>)! |!<(! f/d/a/f/c'/a/!<)! | %130
!>(! b/g/d/!>)!!<(!g/c'/a/!<)! |!>(! b/g/d/!>)!!<(!g/c'/a/!<)! |!>(! b/g/a/f/g/e/!>)! | %133
!mf! f/d/A/d/f/d/ | g/d/a/d/b/d/ | !>!e/c/G/c/e/c/ | f/c/g/c/a/c/ | !>!^d/B/F/B/d/B/ | %138
 e/B/f/B/g/B/ |"_cresc." ^c/g/d/g/e/g/ | f/d/^g/d/b/d/ |!>(! ^c/d/e/c/A/G/!>)! | %142
!<(! F/A/d/A/f/d/!<)! |!f! (^g/!>(!a/) A2-!>)! |!<(! A/B/^c/A/e/A/!<)! |!mf! (f/g/)!>(! A2-!>)! | %146
"_cresc." A/B/^c/d/e/f/ | g/a/b/^c'/!f!d'/=c'/4b/4 |!>(! a/g/fMe!>)! |!mf! d/A/^G/B/E/d/ | %150
 ^c/"_dim."A/E/D/^C/D/ | =c/A/F/D/^C/D/ | B/A/G/D/^C/D/ | A/G/F/D/^C/D/ | G/F/E/D/!<(!^C/B,/ | %155
 A,/^C/E/G/^c/e/!<)! |!f! a!>(!d^c!>)! | d3/2 ::!mf!!<(! z/ a | f!<)!"_cresc."d^c | def | %161
 g/a<Pag/4a/4 |!f! b2 B |!mf! e^de | acB | ga/g/f/e/ | ^d!<(!Bb-!<)! | bge- | %168
 e/^d/!>(!e/d/^c/B/!>)! | !>!af^d- | d/^c/!>(!e/^d/c/B/!>)! |"_cresc." gfe | c'ba- | %173
!>(! a/g/b/a/g/f/!>)! |!p! e2 g | ^c"_cresc."AB | ^cde | fde | fga | bga | bc'd' | efg | ada | %183
!f! b/g/d/B/d/g/ | a/f/^d/B/^A/B/ | g/e/B/G/B/e/ | =f/d/B/G/^F/G/ |!>(! e/d/c/B/A/G/!>)! | %188
!<(! F/A/c/d/f/a/!<)! |!f! !wedge!d'!>(!.g.f | g3/2!>)! ::[M:3/4]!mf![Q:1/4=92] d/{c}B>c | %192
{c} d2 (d2 e>)=f |{e} d3 e{d} c2- | c>d!>(!(B>A)(B>c)!>)! |{B} A7/2"_cresc." f<de/ | f2 (g2 a>)b | %197
 e3 f g2- | g3/2f/4e/4"_dim." (d>c)a>e |!p! (c2!<(! B>)dg>a!<)! |!f! b2 b3 b |{f} e3 e a2- | %202
 a>b P^g3 a | a2- a/g/"_dim."f/a/ g/f/e/g/ |!p! f2 B3 e | A2-!<(! A/A/B/^c/ d/e/f/4e/4d/ | %206
 b>!<)!B!>(! (d2 ^c>)d!>)! |!p! d3 :: a<(fg/) | a2 (a2 b>)c' |{b} a3 b{a} g2- | %211
 g>f!>(!a>g!>)!Pf>e |!p!{e} ^d7/2"_cresc." f<Pde/ | f2 (f2 g>)a |{[eg]} [^df]7/2!<(! .f<^ga/!<)! | %215
!f! b>c' ^g3 g | a3 z/ a<"_dim."e^f/ | g/f/e/g/ f4- | f3 z/ ^d<ea/ | g>f!>(! (e2 ^d>)e!>)! | %220
!p! e2- e/g/f/a/ g/f/e/d/ | cB- B/d/"_cresc."c/B/ a>g | =fe- e/g/^f/e/ c'>a | %223
!f!!>(! b-b/4a/4g/4f/4!>)! e>!<(!ef>g!<)! |!>(! f/g/a/f/!>)! d4- | d6- | d3 z/ f<de/ | %227
 f2{a} ^g3 a |!f! b/=f/"_dim."e/d/ e/d/c/B/ A/^G/^F/E/ |!<(! d/c/B/d/ c4-!<)! | c/B/A/c/ B>e d2- | %231
 d>c B2 PA>G |!p! [DG]3 z/ ::[M:3/4]!p![Q:1/4=120] D x2"_cresc." G x2 | B x2 d x2 | g x2 b x2 | %236
 P[gb]4 [fa]2 | b x2 e x2 | a x2 d x2 | g x2 ^c x2 | f x2 B x2 |"_dim." e x2 A x2 | d x2 G x2 | %243
!p! z2 d2 ^c2 |!>(! (^c4 d2)!>)! ::!p![I:staff +1] A,[I:staff -1] x2"_cresc." D x2 | F x2 A x2 | %247
 c x2 ^d x2 | f3 g/a/ g2 |!p![I:staff +1] B,[I:staff -1] x2"_cresc." E x2 | G x2 B x2 | %251
 d x2 =f x2 | ^gabd c2 | f x2 B x2 | g x2 ^A x2 | f x2 B x2 | a x2 ^d x2 |"_dim." g x2 c x2 | %258
 f x2 B x2 | e x2 A x2 |!pp! ^d x2 ^D x2 | c x2 ^d x2 | f x2 a x2 |!f! g2 e2 ^d2 | %264
!>(! (^d2 e4)!>)! |!p![I:staff +1] A,[I:staff -1] x2 G x2 |!p![I:staff +1] A,[I:staff -1] x2 A x2 | %267
"_cresc."[I:staff +1] A,[I:staff -1] x2 G x2 |[I:staff +1] A,[I:staff -1] x2 A x2 | %269
!p![I:staff +1] G,[I:staff -1] x2 =F x2 |[I:staff +1] G,[I:staff -1] x2 G x2 | %271
"_cresc."[I:staff +1] G,[I:staff -1] x2 =F x2 |[I:staff +1] G,[I:staff -1] x2 G x2 | ^FEDAFE | %274
"_cresc." DA,DFDF | GDGBGB | dBG=fdB | e x2 A x2 | d x2 G x2 | c x2 F x2 | B x2 E x2 | A x2 D x2 | %282
 G x2[I:staff +1] C[I:staff -1] x2 | z2 g2 f2 | (f4 g2) ::[M:3/8]!mf![Q:1/8=144] D | %286
 MG2!<(! G/4A/4B/!<)! | A2!>(! G | FG!>)!E |!p! D"_cresc."AG | FcB | A!f!ed | Pc"_dim."B/A/d | %293
 c/B/A/G/!p!D | MG2 G/4A/4B/ |{B} A2 G | FGE | D/F/"_cresc."E/D/E/F/ | G/e/d/^c/B/A/ | %299
 ^G/A/!f!a=g | f!>(!d^c | d2!>)! ::!f! a | Md2 d/4e/4f/ | g2 a | ba/g/f/g/ |!>(! a/g/f/e/g!>)! | %307
!mf!{c} B2 c/4d/4e/ | G2 g |{c} B2 c/4d/4e/ | G2 f- | f!<(!=fe | c'!<)!!>(!^fg!>)! |!p! A/B/cB | %314
 A2 d |!f! Mg2 g/4a/4b/ | e2 d |!>(! cB/c/d/B/!>)! |!p! d/c/B/A/d/B/ | d/c/B/A/d/B/ | %320
!<(! d/c/B/A/c/A/!<)! |!>(! c/B/A/G/!>)!c/A/ | c/B/!<(!A/G/A/B/!<)! |!mf! E2 F/4G/4A/ | D2 d | %325
 ME2 F/4G/4A/ |"_cresc." D2 d |{c} B2 c/4d/4e/ |!f! =f2 g | e!>(!=fd!>)! | %330
 !>!=f/e/d/"_dim."c/e/c/ | e/d/c/B/d/B/ | d/c/B/A/c/A/ |!p! dGF | G2 ::[M:6/8]!f![Q:3/8=72] z | %336
 z6 |!>(! z3!>)!!p! z z g | b>ge/^c/ ad z |!>(! g>e^c/!p!A/!>)! f/e/f/a/d/f/ | %340
"_cresc." g/f/g/b/e/g/ a/g/a/c'/f/a/ | b/a/c'/b/a/g/ f/e/f/g/!f!e/f/ | g2 c' f g2- | %343
 gfa!>(! def!>)! | g!p! z z z3 | z3 e^f^g |!mf! a z z z3 | z3 fga- |!f! a g2- g f2- | %349
!>(! f e2-!>)! e!<(!df-!<)! |!>(! fe!>)! z z!<(! z e-!<)! |"_dim." ed z z z d | d.c z z z c- | %353
"_cresc." cBd- d^ca- |!f! ag z ^cAd- | d^c z!mf! d3- | d/c/d/e/B/d/ c3- | %357
 c/B/c/d/A/c/!<(! B/A/B/c/d/B/!<)! |!f! e>cA/F/ dG z | c>AF/D/ BE z | A>FD/B,/ .G.^C z | %361
!p! z/ E/F/A/D/F/ G/"_cresc."F/G/B/E/G/ | A/G/A/c/F/A/ B/A/B/^c/d/B/ | ^cAe- edf- | feg- gfa | %365
!f! b>ge/^c/ a.d z | g>e^c/A/ .f!>(!d=c!>)! |!mf! BeG-!>(! G.F!>)! :: z | z6 | z6 | z6 | z6 | %373
 z3 z z!f! A | .D.G z z/ G/F/E/F/D/ | B,/!>(!^C<PCB,/4!>)!C/4!p! D/E/D/C/D/B,/ | %376
 ^C/^D<"_cresc."PDC/4D/4 E/B/A/G/A/F/ | GP^G3/2F/4G/4 A/e/d/c/!f!d/B/ | c/a/g/=f/g/e/ f^GA | %379
 z/ c'/b/a/b/d/ .c/b/a/^g/a/c/ | .B/a/g/f/g/d/ .A/g/f/e/f/a/ | %381
 ^d/"_cresc."e<Ped/4e/4 f/e/f/a/!f!g/f/ | .e.a z z/ a/g/f/g/e/ | %383
 ^c/^d<!>(!Pdc/4d/4!>)!!p! e/d/e/g/f/a/ |"_cresc." g/f/g/b/e/^g/ a/g/a/c'/f/a/ | %385
 b/a/b/c'/^g/b/ c'/b/a/g/a/!f!e/ | =f>d'b/^g/ ea z |!p! d>b^g/e/ .c.ea | %388
 .!^!d.!^!g z z/ g/f/e/f/d/ | B/^c<PcB/4c/4 .dPB3/2A/4B/4 | c/d/c/B/c/A/ B/A/B/c/d | %391
 Gc z z/ c/B/A/B/G/ | E/F<!>(!PFE/4F/4!>)!!p! .G.d.e |"_cresc." .A.e.f .Bfg |!mf! c3 c/d/c/B/c/A/ | %395
 B ^c2 d!<(!Ad-!<)! |!f! d/B/Gc FDG- |!>(! G/4F/4E/D z!>)!!p! z/ C/D/=F/E/G/ | %398
 =F/G/F/E/F/D/ E/A/G/^F/G/E/ | F/B/A/G/A/F/ GA z | z/ D/G/B/A/F/ FG :| %401
V:2
 z2 z2 !wedge!G, z | !wedge!G, z !wedge!G, z z2 | x6 | !wedge!G,, z !wedge![G,,,G,,] z z2 | x6 | %5
 x6 | x6 | D,/ x2 x2 x/ x | G,/ x4 x3/2 | ^C,/ x4 x3/2 | F,/ x4 x3/2 | B,,/ x4 x3/2 | E,/ x4 x3/2 | %13
 A,,/ x4 x3/2 | %14
!p! D,/ A,/B,/^C/[I:staff -1] D/E/=F/"^cresc."D/[I:staff +1] ^G,/[I:staff -1] F/E/D/ | %15
 ^C/D/E/ ^F/ G/A/_B/G/ f/e/d/^c/ |[I:staff +1] z2 z2!p![I:staff -1] D[I:staff +1] z | %17
[I:staff -1] !wedge!D[I:staff +1] z[I:staff -1] !wedge!D[I:staff +1] z z2 | %18
[I:staff -1] a/g/f/e/d/^c/B/A/G/F/E/D/ |!f![I:staff +1] A, z D, z z2 | G,,G,B,G,E,^C, | %21
 A,,A,^CA,F,D, | B,,B,DB,G,E, | ^C,^CECA,F, | D,/D/^C/D/ E/D/C/D/ B,/D/B,/A,/ | %25
 G,/D/^C/D/ E/D/C/D/ A,/D/A,/G,/ | F,/D/^C/D/ E/D/C/D/ G,/D/G,/F,/ | %27
 E,/D/^C/D/ E/D/C/D/ F,/D/F,/E,/ | !wedge!D,A,F,D,.^C,.A, | !wedge!B,,^G,=F,D,.A,,.A, | %30
 !wedge!^G,,B,=F,D,.G,,.B, | A,/A,,/^C,/E,/ A,/[I:staff -1] ^C/E/G/ ^c/G/F/E/ | %32
[I:staff +1] z/ A,,/D,/F,/ A,/[I:staff -1] D/F/A/ d/A/G/F/ | %33
[I:staff +1] z/ A,,/E,/A,/ ^C/[I:staff -1] E/G/c/ e/c/B/A/- | %34
[I:staff +1] z/ A,,/D,/A,/ D/[I:staff -1] =F/A/d/ f/d/=c/B/- | %35
[I:staff +1] z/ A,,/B,,/D,/ ^G,/B,/[I:staff -1] D/^G/B/ d/=f/^g/ | %36
[I:staff +1] !wedge!A,,, z z2 !wedge!A, z | ^C z z2 ^A, z | B, z z2 E, z | ^D, z z2 B, z | %40
[I:staff -1] [EG][I:staff +1] z z2[I:staff -1] !wedge!E[I:staff +1] z | %41
[I:staff -1] !wedge!^D[I:staff +1] z[I:staff -1] !wedge!E[I:staff +1] z z2 | z6 | B, z E, z z2 | %44
 x6 | x6 | x6 | x6 | z B,,/^C,/ ^D,/E,/F,/G,/ A,/G,/F,/A,/ | G,2- G,/F,/E,/=D,/ ^C,/E,/^D,/F,/ | %50
 E,2- E,/D,/C,/B,,/ A,,/C,/B,,/D,/ | C,2- C,/B,,/A,,/=G,,/ F,,/A,,/^G,,/B,,/ | %52
 A,,/ z/ z A,/ z/ z z2 |[I:staff -1] ^G/[I:staff +1] z/ z[I:staff -1] A/[I:staff +1] z/ z z2 | %54
 B,/ z/ z ^G,/ z/ z z2 | D,/ z/ z C,/ z/ z z2 | !wedge!A,,A,CA,=F,D, | !wedge!G,,G,B,G,E,C, | %58
 !wedge!=F,,=F,A,F,D,B,, | !wedge!E,,E,G,E,C,A,, | %60
 D,,/C,,/D,,/E,,/ =F,,/G,,/A,,/B,,/ C,/B,,/A,,/C,/ | B,,/A,,/G,,/A,,/ B,,/C,/D,/E,/ =F,/E,/D,/F,/ | %62
 E,/E,,/=F,,/G,,/ A,,/B,,/C,/D,/ E,/D,/E,/=F,/ | G,=F,/E,/ D,/C,/B,,/A,,/ G,,/=F,,/E,,/D,,/ | %64
 C,, z z2 !wedge!C z | !wedge!C z !wedge!C z z2 | z6 | G, z C, z z2 | %68
 !wedge!C,/C/E/C/ A,/C/E/C/ F,/C/E/C/ | B,,B,DB,G,E, | A,,/A,/C/A,/ F,/A,/C/A,/ D,/A,/C/A,/ | %71
 G,,G,B,G,E,C, | !wedge!D, z !wedge!D,, z F, z | G, z z2 [E,G,^C] z | F, z z2 F, z | %75
 !wedge!D, z D,, z !wedge!D, z | !wedge!D, z D,, z !wedge!D, z | !wedge!D, z z2 z2 | %78
 G,,/G,/^F,/G,/ A,/G,/F,/G,/ E,/G,/E,/D,/ | C,/G,/F,/G,/ A,/G,/F,/G,/ D,/G,/D,/C,/ | %80
 !wedge!B,,G,B,G,E,C, | !wedge!A,,F,A,F,D,B,, | G,,D,B,,G,,F,,D, | E,,^C,_B,,G,,D,,D, | %84
 ^C,,E,_B,,G,,C,,E, | !fermata!=C,,2 z2 z2 | z/ B,,/C,/D,/ C,/B,,/A,,/G,,/ D,D,, | %87
 .G,,.G, z .B,.E,.G, | .G,,.C z .A,.D,.F, | !>!!wedge!G,,/B,/A,/B,/ G,/B,/=F,/B,/ E,/B,/D,/B,/ | %90
 !wedge!C,/A,/G,/A,/ F,/A,/E,/A,/ D,/A,/C,/A,/ | !wedge!B,,/G,/F,/G,/ E,/G,/D,/G,/ C,/G,/B,,/G,/ | %92
 A,,/C,/E,/G,/ .F,.D,.G,.B,, | .C,.A,, D,2 D,,2 | G,,,6 |][M:4/4] z/ | %96
 G,3 F, G,3/2F,/4E,/4 (3D,/C,/B,,/ (3C,/B,,/A,,/ | %97
 B,,G,,C,A,, (3D,/A,/B,/ (3C/B,/A,/ (3G,/F,/G,/ (3A,/G,/F,/ |{E} ^D2- (3D/D/^C/ (3D/C/B,/ EE,G,E, | %99
 A,A,,- (3A,,/^C,/B,,/ (3C,/B,,/A,,/ D,D,,F,,D,, | G,,G,- (3G,/G,/A,/(3B,/B,/^C/ D^G,B,E, | %101
 !arpeggio!A,3/2G,/4F,/4 (3E,/D,/^C,/ (3D,/C,/B,,/ (3C,/A,,/B,,/ (3C,/B,,/A,,/ (3D,/F,/E,/ (3D,/E,/F,/ | %102
 (3G,/A,/B,/ (3^D,/E,/F,/ (3E,/B,/^C/ (3D/C/B,/ (3C/A,/B,/ (3C/B,/A,/ (3D/C/B,/ (3A,/B,/=C/ | %103
 B,2- (3B,/A,/G,/(3F,/G,/A,/ G,2- (3G,/F,/E,/(3^D,/E,/F,/ | %104
 E,2- (3E,/D,/^C,/(3B,,/C,/D,/ C,A,,E,,^C,, | %105
 (3A,,,/A,,/B,,/ (3^C,/D,/E,/ (3F,/G,/A,/ (3B,/^C/D/[I:staff -1] (3E/D/^C/ (3F/E/D/ A[I:staff +1]A, | %106
 B,/>D/A,/>D/ G,/>D/F,/>D/ E,A,- A,G,- | %107
 G,/F,/4E,/4F,[I:staff -1] .[DF]/[I:staff +1] x/[I:staff -1] D/[I:staff +1] x/ [F,A,]7/2 :: z/ | %109
 D,3 ^C,!<(! !>!D,3/2E,/4F,/4 (3G,/A,/B,/!<)! (3A,/B,/C/ | %110
!p! B,G,CF, (3B,/F,/G,/ (3A,/G,/F,/ (3E,/^D,/E,/ (3F,/E,/D,/ | %111
 ^G,2- (3G,/E,/F,/ (3G,/F,/E,/ A,E,A,,A, |{E,} ^D,2- (3D,/B,,/^C,/ (3D,/C,/B,,/ E,B,,E,,E, | %113
 A,,A,,, (3z/ A,/=G,/ (3A,/G,/^F,/ B,F,^D,B,, | C,C,, (3z/ C/B,/ (3C/B,/A,/ ^DA,F,^D, | %115
 E,E,, (3z/ E/=D/(3E/D/^C/ GCFF, | z2 z/[I:staff -1] BA/ G2[I:staff +1] x2 | %117
 (3A,,/B,,/^C,/ (3B,,/C,/D,/ (3C,/D,/E,/ (3A,,/B,,/C,/ (3D,/E,/F,/ (3E,/F,/G,/ (3F,/G,/A,/ (3D,/E,/F,/ | %118
 (3G,/A,/B,/ (3A,/B,/C/ (3B,/C/D/ (3G,/A,/B,/!<(! (3C/B,/A,/ (3^G,/A,/B,/ (3A,/=G,/!<)!F,/ (3E,/F,/G,/ | %119
 F,2- (3F,/F,/E,/(3F,/E,/D,/ G,G,,B,,G,, | C,C,,- (3C,,/C,/D,/ (3E,/E,/^F,/ G,^C,E,A,, | %121
 D,,D,- (3D,/C,/B,,/ (3A,,/B,,/C,/ B,,,B,A,G, | %122
 (3F,/D,,/E,,/ (3F,,/G,,/A,,/ (3B,,/C,/D,/ (3E,/F,/G,/ (3A,/G,/F,/ (3B,/A,/G,/ DD, | %123
 (3E,/B,,/G,,/ (3E,,/G,,/B,,/ (3E,/D,/C,/ (3D,/C,/B,,/ (3C,/B,,/A,,/ (3B,,/A,,/G,,/ D,D,, | %124
 G,, z z2 (3z/!p! G,,/F,,/ (3G,,/D,,/B,,,/ G,,,3/2 ::[M:3/8] z/ z | G,B,D | .B,.G, z | F,A,D | %129
 .A,.F, z | G,B,D | GB,D | G,CA, | DD,C | .B,.A,.G, | CC,B, | .A,.G,.F, | .B,.B,,.A, | G,F,E, | %139
 A,B,^C | DB,G, | A,A,,A,- | A,F,D,- | D,/^C,/D,/C,/B,,/A,,/ | G,E,^C,- | C,/B,,/D,/^C,/B,,/A,,/ | %146
 F,E,D, | ^C,D,E, | F,G,A, | B,E,^G, | A,A,,=G, | F,D,F, | G,B,,E, | F,A,,D, | E,G,,B,, | ^C,A,G, | %156
 F,G,,A,, | D,,3/2 :: A,/B,/^C/ | D/A,/F,/A,/E,/G,/ | F,/A,/G,/B,/A,/C/ | B,/D/C/E/D/F/ | %162
 G/!>(!D/B,/D/G,/!>)!B,/ | C/B,/A,/B,/G,/B,/ | F,/A,/E,/A,/^D,/A,/ | E,/G,/D,/G,/C,/A,/ | %166
 B,/F,/^D,/F,/A,,/D,/ |!<(! G,,/B,,/E,/B,,/G,/E,/!<)! |!f! (^A,/B,/) B,,2- | %169
 B,,/^C,/^D,/B,,/F,/B,,/ | (G,/A,/) B,,2- | B,,/^C,/^D,/E,/F,/G,/ | A,/B,/^C/^D/E/D/ | EG,B, | %174
 E,/B,,/G,,/B,,/E,,/E,/ | A,,/B,,/^C,/A,,/D,/A,,/ | E,/B,,/F,/A,,/G,/A,,/ | D,/E,/F,/D,/G,/D,/ | %178
 A,/D,/B,/D,/C/D,/ | G,/A,/B,/G,/C/G,/ | D/G,/E/G,/=F/G,/ | C/D/C/B,/A,/G,/ | %182
 F,/E,/D,/C,/B,,/A,,/ | G,,/B,,/D,/G,/F,/E,/ | .^D,.B,,.D, | E,,/G,,/B,,/E,/D,/C,/ | .B,,.G,,.B,, | %187
 C,,G,,C,- | C,F,,A,, | !wedge!B,,,.C,,.D,, | G,,,3/2 ::[M:3/4] z/ z2 | z z/ G,<F,E,<D,C,/ | %193
{A,} ^G,>E, A,2- A,>=G, | F,>D, G,2 C,2 | D,2 D,,2 z2 | z z/[I:staff -1] D<[I:staff +1]CB,<A,G,/ | %197
 C2 A,2 E2 | C2 D4 | G,2 G,,>G,B,>[I:staff -1]D | G2[I:staff +1] G,2[I:staff -1] G2- | G>BA>GF>E | %202
 D7/2[I:staff +1] B,<[I:staff -1]ED/ |[I:staff +1] ^C2- C>A,B,>=C | D>D,G,>F,E,>D, | %205
 ^C,>A,,D,>C,B,,>A,, | G,,>E,, A,,2 A,,,2 | D,,3 :: z/ z2 | z z/ D<^CB,<A,G,/ | ^D>B, E3 =D | C6 | %212
 B,2 B,,2 z2 | z z/[I:staff -1] B<AG<FE/ | B2[I:staff +1] B,2 z2 | z z/ =F<ED<CB,/ | C2 C,2 C2 | %217
 ^C2 D2 D,2 | D2 ^D/F/G/A/ G/F/E/D/ | E>A, B,2 B,,2 | E,2 E,,2 z2 | z =FEDCB, | %222
 C2 C[I:staff -1]DE^F |[I:staff +1] G,2 C2 ^C2 | D2 D,2 z2 |[I:staff -1] F2 (F2 G>)A | %226
 (G2 F>)"^cresc.".AF>G |[I:staff +1] z z/ E<DC<B,A,/ | ^G,2 z2 z2 | z z/ E,<A,G,<F,E,/ | %230
 x2 z!<(! z/[I:staff -1] F/ G2-!<)! | G>E!>(! D2 C2!>)! |[I:staff +1] G,3 z/ :: %233
[M:3/4][I:staff -1] D[I:staff +1]G,B,[I:staff -1]G[I:staff +1]B,D |[I:staff -1] BDGdGB | gBdbdg | %236
[I:staff +1] z!>(![I:staff -1] d^cd D2!>)! | bdgeGB | a^cedFA | gBd^cEG | fA^cBDF | eGBA^CE | %242
 dFAG[I:staff +1]B,D | G,2 z2 A,2 | D6 :: A,D,F,[I:staff -1]D[I:staff +1]F,A, | %246
[I:staff -1] F[I:staff +1]A,[I:staff -1]DADF | cFA^dAc- |!>(! ^D4!>)! E2 | %249
[I:staff +1] B,E,G,[I:staff -1]E[I:staff +1]G,B, |[I:staff -1] GB,EBEG | d^GB=fBd- | %252
!>(! E4!>)![I:staff +1] A,2 |[I:staff -1] fAcB^DF | gBe^A^CE | f=AcB^DF | ace^dFA | gBdcEG | %258
 fAcBDF | eGBACE | ^dFA^DF"^cresc."A | cFA^dAc | fc^dadf |[I:staff +1] z2 G,2 B,2 | E3 D^CB, | %265
 A,[I:staff -1]E^CGEC |[I:staff +1] A,[I:staff -1]FDAFD |[I:staff +1] A,[I:staff -1]E^CGEC | %268
[I:staff +1] A,[I:staff -1]FDAFD |[I:staff +1] G,[I:staff -1]DB,=FDB, | %270
[I:staff +1] G,[I:staff -1]ECGEC |[I:staff +1] G,[I:staff -1]DB,=FDB, | %272
[I:staff +1] G,[I:staff -1]ECGEC |!p![I:staff +1] C,2 F,2 A,2 | F,2 D,2 C,2 | B,,2 D,2 G,2 | %276
 B,2[I:staff -1] D2 G2 | eGBACE | dFAGB,D | cEGF[I:staff +1]A,C | %280
[I:staff -1] BDFE[I:staff +1]G,B, |[I:staff -1] ACED[I:staff +1]F,A, | %282
[I:staff -1] G[I:staff +1]B,DCE,G, | C,2 z2 D,2 | G,,6 ::[M:3/8] G,, | G,3 | F,2 G, | A,2 A,, | %289
 E,/=C/B,/A,/B,/G,/ | A,,/A,/G,/F,/G,/E,/ | F,2 G, | C,D,D,, | G,,G,F, | E,3 | F,2 B, | G,2 A, | %297
 B,3 | B,3 | B,2 ^C | F,G,A, | D,2 :: D, | C3 | B,2 A, | G,A,B, | E,B,E/C/ | E/D/C/B,/E/C/ | %308
 E/D/C/B,/E/D/ | E/D/C/B,/E/D/ | E/D/C/B,/D/B,/ | CD,C, | A,,A,G, | F,D,G, | %314
 .D,/"^cresc."D/C/B,/C/A,/ | B,3 | C2 =F | DEE, | .A,,A,^G, | A,C,B,, | A,,G,F, | G,B,,A,, | %322
 G,, z/ B,/A,/G,/ | !>!C/B,/A,/G,/D/A,/ | C/B,/A,/G,/C/A,/ | C/B,/A,/G,/C/A,/ | C/B,/A,/G,/A,/F,/ | %327
 G,3 | A,2 B, | C=F,G, | C,3 | D,3 | A,,3 | B,,C,D, | G,,2 ::[M:6/8] z | z6 | z6 | z6 | z6 | z6 | %341
 z3 z z D | !^!E>CA,/F,/ .D.G, z | C>A,F,/D,/ B,/A,/B,/C/B,/A,/ | .G,DE .A,E=F | %345
 .B,=FG C/!<(!B,/C/D/C/!<)!B,/ | .A,EF .B,FG | .^CGA!<(! D/C/D/E/D/C/!<)! | B,>G,E,/^C,/ .A,.D, z | %349
 G,>E,^C,/A,,/ F,/E,/F,/A,/D,/F,/ | ^G,/F,/G,/B,/E,/G,/ ^A,/G,/A,/^C/F,/A,/ | %351
 B,/^A,/B,/D/F,/=A,/ ^G,/F,/G,/B,/E,/G,/ | A,/^G,/A,/C/E,/=G,/ F,/E,/F,/A,/D,/F,/ | %353
 G,/F,/G,/A,/B,/G,/ A,/G,/A,/B,/^C/A,/ | D/B,/EG,- G,/E,/F,/A,/G,/F,/ | %355
 E,/A,,/A,/G,/F,/E,/ .D,A,B, | E,B,,G,, E,,B,C | F,D,E, =F,E,D, | C,>A,^F,/A,/ B,,>G,E,/G,/ | %359
 A,,>F,D,/F,/ G,,>E,^C,/E,/ | F,,>D,B,,/D,/ E,,>^C,A,,/C,/ | .D,,A,,B,, .E,,B,,C, | %362
 .F,,C,D, .G,,D,E, | .A,,/F,/G,/A,/E,/G,/ F,/E,/F,/A,/D,/F,/ | %364
 E,/D,/E,/G,/^C,/E,/ D,/C,/D,/F,/B,,/D,/ | .G,,.G, z z z F,- | %366
 F,/D,/E,/G,/A,,/^C,/ D,/E,/F,/A,/D,/F,/ | G,/E,/^C,/E,/A,,/C,/ D,,.D, ::!f! z | z6 | %370
!p! z3 z z!f! .D | .G,.C z z/!>(! C/B,/A,/B,/G,/!>)! | %372
!p! E,/F,<PF,E,/4F,/4 .G,"^cresc."P^G,3/2F,/4G,/4 | A,/B,/A,/G,/A,/F,/ G,/B,/A,/B,/C/A,/ | %374
 B,/A,/B,/^C/D/B,/ .C.A,.D | z/ A,/G,/F,/G,/E,/ F,/^G,<PG,F,/4G,/4 | A, F,2 E, z z | E,, z z z3 | %378
 z6 | z6 | z6 | z3 z z B, | C>A,F,/^D,/ .B,.E, z | A,>F,^D,/B,,/ G,/F,/G,/B,/D,/F,/ | %384
 .E,B,C .F,CD | .^G,DE A,B,C- | CB,A, .^G,.A, z | z6 |[I:staff -1] B/A/B/^c/d/B/ .c.!^!A.!^!d | %389
[I:staff +1] z/[I:staff -1] A/G/F/G/E/ F/G/=F/E/F/D/ | E/^F<"^cresc."PFE/4F/4 G2-!f! G/F/- | %391
[I:staff +1] E,>C,A,,/F,,/ .D,.G,, z | C,>A,,F,,/D,,/ B,,/A,,/B,,/D,/G,,/B,,/ | %393
 C,/B,,/C,/E,/A,,/C,/ D,/C,/D,/F,/B,,/D,/ | E,C,A,, D,F,D, | G,E,A, D,/E,/D,/C,/B,,/A,,/ | %396
 .G,,.C, z z/ C,/B,,/A,,/B,,/G,,/ | C>A,F,/D,/ B,3 |[I:staff -1] CD[I:staff +1] z G,E, z | %399
 D,P^D,3/2^C,/4D,/4 E,/F,<PF,E,/4F,/4 | x B,,D, G,,2 :| %401
V:3
 x6 | x6 | x6 | x6 | x6 | x6 | x6 | x6 | x6 | x6 | x6 | x6 | x6 | x6 | x6 | x6 | x6 | x6 | x6 | %19
 x z x z z2 | x6 | x6 | x6 | x6 | x6 | x6 | x6 | x6 | x6 | x6 | x6 | x6 | [FA]/ x4 x3/2 | %33
 [G^c]/ x4 x3/2 | [Ad]/ x4 x3/2 | x6 | [^ce] x x2[I:staff +1] ^C[I:staff -1] z | x6 | %38
[I:staff +1] B,/^C/[I:staff -1]D/E/ F/G/A- A=C- | CB,/^C/ ^D/E/F/G/ A/G/F/A/ | %40
 e z z2 !wedge![GB] z | x6 | x6 | x z x z z2 | x6 | x6 | x6 | x6 | x6 | x6 | x6 | x6 | x6 | x6 | %54
 x6 | x6 | x6 | x6 | x6 | x6 | x6 | x6 | x6 | x6 | x6 | x6 | x6 | x z x z z2 | x6 | x6 | x6 | x6 | %72
 x6 | x6 |[I:staff +1] [A,D][I:staff -1] z z2[I:staff +1] A,[I:staff -1] z | %75
[I:staff +1] [G,_B,][I:staff -1] z z2[I:staff +1] [G,B,][I:staff -1] z | %76
[I:staff +1] [F,A,][I:staff -1] z z2[I:staff +1] [G,_B,][I:staff -1] z | %77
[I:staff +1] C_B,A,G,=F,_E, | [B,,D,]/[I:staff -1] x4 x3/2 | x6 | x6 | x6 | x6 | x6 | x6 | %85
 A2 x2 x2 | x6 | x6 | x6 | x6 | x6 | x6 | x6 | x6 | x6 |][M:4/4] x/ | [Bd]3/2 x/ x2 x4 | x8 | x8 | %99
 x8 | x8 |[I:staff +1] E,2[I:staff -1] x2 G/>F/E/>A/ F2- | F/>E/F/>"_cresc."A/ G2- G/>F/E/>G/ F2 | %103
 (3F/F/E/ (3F/E/^D/ E2- (3E/D/E/ (3F/E/D/ (3E/F/G/ (3A/G/F/ | %104
 G4- (3G/A/B/ (3^c/c/d/ (3e/e/f/ (3g/g/a/ | x8 | x8 | x15/2 :: x/ | [DF]3/2 x/ x2 x4 | x8 | x8 | %112
 x8 | x8 | x8 | x4 (3z/ e/f/ (3g/f/e/ ^d z | x8 | x8 | x8 | x8 | x8 | x8 | x8 | x8 | %124
 x"_dim." (3[B,D]/ x/ x/ (3[DG]/ x/ x/ (3[GB]/ x/ x/ [Bd]7/2 ::[M:3/8] x3/2 | x3 | x3 | x3 | x3 | %130
 x3 | x3 | x3 | x3 | x3 | x3 | x3 | x3 | x3 | x3 | x3 | x3 | x3 | x3 | x3 | x3 | x3 | x3 | x3 | %149
 x3 | x3 | x3 | x3 | x3 | x3 | x3 | z FE | F3/2 :: x3/2 | x3 | x3 | x3 | x3 | x3 | x3 | x3 | x3 | %167
 x3 | x3 | x3 | x3 | x3 | x3 | x3 | x3 | x3 | x3 | x3 | x3 | x3 | x3 | x3 | x3 | x3 | x3 | x3 | %186
 x3 | x3 | x3 | z BA | B3/2 ::[M:3/4] B/{A}G>A |{A} B2 (B2 c>)d |{c} !>!B3 c{B} A2- | %194
 A2 (G>F) (G>A) |{G} F7/2 A<FG/ | A2 (B2 c>)d | d>G c3 B | A2 (B>A)(G>F) | (F2 G) z z2 | %200
 z z/ a<gf<ed/ | ^c4- c>c | B6 | z z/ E/ A4- | A3 D G2- | G2 F2 z2 | z z/ G/ (F2 E2) | F3 :: %208
 f<(de/) | f2 (f2 g>)a |{g} f3 g{f} e2- | e2 E2 A2 | B7/2 ^d<B^c/ | ^d2 (d2 e>)f | x7/2 ^d<Bc/ | %215
 d2- d>=fe>d | e4 z2 | z2 z z/ d<AB/ | c/B/A/c/!<(! B4-!<)! | B>A (G2 F2) | G2 z2 z2 | %221
 z2 z[I:staff +1] =FED | x6 |[I:staff -1] G2- G>GA>B | A2 z z/ A<FG/ | A2 (A2 B>)c | %226
 (B2 A3/2) x2 x/ | A2 B3 c | d z z2 z2 | z2 z z/!p! E<AG/ | F2 G>c B2- | B>A G2 F2 | B,3 x/ :: %233
[M:3/4] x6 | x6 | x6 | x6 | x6 | x6 | x6 | x6 | x6 | x6 | x2 E2 G2 | (A4 F2) :: x6 | x6 | x6 | %248
 c2 B4 | x6 | x6 | x6 | d2 ^G2 A2 | x6 | x6 | x6 | x6 | x6 | x6 | x6 | x6 | x6 | x6 | e2 B2 A2 | %264
 (A2 G4) | x6 | x6 | x6 | x6 | x6 | x6 | x6 | x6 | x6 | x6 | x6 | x6 | x6 | x6 | x6 | x6 | x6 | %282
 x6 | x2 A2 c2 | (c4 B2) ::[M:3/8] x | z B,E | E D2- | DE^C | D3- | D3- | DcB | AGF | G2 z | %294
 z[I:staff +1] B,^C- | C[I:staff -1] D2- | DE[I:staff +1]^C | x3 | x3 | x3 |[I:staff -1] DFE | %301
 F2 :: z | z!<(! FA!<)! | DGF- | FE^D | E x2 | x3 | x3 | x3 | x3 | ABc- | ccB | A2 G | F2 z | %315
 z DG- | G^GA | A2 ^G | A x2 | x3 | x3 | x3 | x3 | x3 | x3 | x3 | x3 | z =FE- | EED | %329
[I:staff +1] C[I:staff -1]dB- | B[I:staff +1]B,A,- | A,A,G,- | G,G,F, | G,B,A, | B,2 :: %335
[M:6/8][I:staff -1] d | e>cA/F/ dG z | c>AF/D/ B/A/B/!<(!c/B/A/!<)! | %338
 .G[I:staff +1].G,[I:staff -1]G- G/E/F/A/G/F/ | .E.^CA, .DAB | .EBc .Fcd | .Gec dAd- | %342
 d c2- c/A/B/d/c/B/ | A3- AGA | B/A/B/d/G/B/ c/B/c/e/A/c/ | d/c/d/=f/B/d/ eAB | %346
 c/B/c/e/A/c/ d/c/d/f/B/d/ | e/d/e/g/^c/e/ fBc | d/^c/d/e/B/d/ c/B/c/d/A/c/ | B/A/B/^c/G/B/ A2 z | %350
 z z d- d.^c z | z z =c- c.B z | z z B- B.A z | z z F- FE!wedge!A | !^!B>GE/^C/ .A.D z | %355
 G>E^C/A,/ F/E/F/A/D/F/ | G3- G/F/G/B/E/G/ | A3 G3- | G/[I:staff +1]G,/ C2- C/A,/ B,2- | %359
 B,/G,/"_dim." A,2- A,/F,/ G,2- | G,/E,/ F,2- F,/D,/E,[I:staff -1] z | z6 | z6 | z3 z z d- | %364
 d^ce- edf- | f/d/eG- G/E/F/A/D/F/ | B^c z d A2- | A<GE- ED :: x | x6 | x6 | x6 | x6 | x6 | x6 | %375
 x6 | x6 | z/ E/D/C/D/B,/ .C.D.!^!E | .!^!A,.!^!D z z/!>(! D/C/B,/C/A,/!>)! | %379
[I:staff +1] F,/^G,<PG,F,/4G,/4 A,C[I:staff -1]E | ^DBE c/B/A/G/A/F/ | B/A/G/F/G/E/ ^DFB- | %382
 BAc .^D.B,E- | E F2[I:staff +1] B,[I:staff -1] z z | x6 | z3 z z z/ e/ | %386
 .A.d z z/!>(! d/c/B/c/A/!>)! | F/^G<PGF/4G/4 A/G/A/B/c/A/ | x6 | x6 | x6 | %391
 F/EA/G/A/ FD[I:staff +1]G,- | G, A,2 .D,[I:staff -1] z z | x6 | z/ B/A/G/A/E/ F z z | %395
 z/ A/G/F/G/E/ F2 .D | !^!E>[I:staff +1]CA,/F,/[I:staff -1] .D[I:staff +1].G,[I:staff -1] z | x6 | %398
 x6 |[I:staff +1] A,F,[I:staff -1] z z/ D/C/B,/C/[I:staff +1]A,/ | B,<[I:staff -1]DD DB, :| %401
V:4
 x6 | x6 | x6 | x6 | x6 | x6 | x6 | x6 | x6 | x6 | x6 | x6 | x6 | x6 | x6 | x6 | x6 | x6 | x6 | %19
 D, z D,, z z2 | x6 | x6 | x6 | x6 | x6 | x6 | x6 | x6 | x6 | x6 | x6 | x6 | x6 | x6 | x6 | x6 | %36
 x6 | !wedge!^A, z z2 !wedge!F, z | x6 | x6 | x6 | x6 | x6 | !wedge!E, z !wedge!E,, z z2 | x6 | %45
 x6 | x6 | x6 | x6 | x6 | x6 | x6 | x6 | x6 | x6 | x6 | x6 | x6 | x6 | x6 | x6 | x6 | x6 | x6 | %64
 x6 | x6 | x6 | !wedge!C, z !wedge!C,, z z2 | x6 | x6 | x6 | x6 | x2 x2 !wedge!D, z | %73
 !wedge!D, z !wedge!D,, z !wedge!D, z | !wedge!D, z !wedge!D,, z !wedge!D, z | x6 | x6 | x6 | x6 | %79
 x6 | x6 | x6 | x6 | x6 | x6 | x6 | x6 | x6 | x6 | x6 | x6 | x6 | x6 | x6 | x6 |][M:4/4] x/ | %96
 z G,,B,,D, G,3/2 x/ x2 | x8 | x8 | x8 | x8 | A,,2 x2 x4 | x8 | x8 | x8 | x8 | %106
 B,F, G,B,, ^C,D, A,,2 | D,2 x .A,/ x/ (3z/ D,/^C,/ (3D,/A,,/F,,/ D,,3/2 :: x/ | %109
 z D,,F,,A,, D,3/2 x/ x2 | x8 | x8 | x8 | x8 | x8 | x8 | %116
 G,A,B,B,, (3E,/B,,/A,,/"^dim." (3G,,/A,,/B,,/ E,,/G,,/B,,/E,/ | x8 | x8 | x8 | x8 | x8 | x8 | x8 | %124
 x15/2 ::[M:3/8] x3/2 | x3 | x3 | x3 | x3 | x3 | x3 | x3 | x3 | x3 | x3 | x3 | x3 | x3 | x3 | x3 | %141
 x3 | x3 | x3 | x3 | x3 | x3 | x3 | x3 | x3 | x3 | x3 | x3 | x3 | x3 | x3 | x3 | x3/2 :: x3/2 | %159
 x3 | x3 | x3 | x3 | x3 | x3 | x3 | x3 | x3 | x3 | x3 | x3 | x3 | x3 | x3 | x3 | x3 | x3 | x3 | %178
 x3 | x3 | x3 | x3 | x3 | x3 | x3 | x3 | x3 | x3 | x3 | x3 | x3/2 ::[M:3/4] x5/2 | x6 | x6 | x6 | %195
 x6 | x6 | x6 | x6 | x6 | x6 | x6 | x6 | x6 | x6 | x6 | x6 | x3 :: x5/2 | x6 | x6 | x6 | x6 | x6 | %214
 x6 | x6 | x6 | x6 | x6 | x6 | x6 | x6 | C B,3 A,2 | x6 | x2 x x/!p![I:staff -1] F<DE/ | %225
[I:staff +1] z z/ D,<C,B,,<A,,G,,/ | D,2 D,,2 z2 | x6 | x6 | x6 | D,>G,, G,3 A, | B,>C D2 D,2 | %232
 G,,3 x/ ::[M:3/4] x6 | x6 | x6 | x6 | x6 | x6 | x6 | x6 | x6 | x6 | x6 | x6 :: x6 | x6 | x6 | x6 | %249
 x6 | x6 | x6 | x6 | x6 | x6 | x6 | x6 | x6 | x6 | x6 | x6 | x6 | x6 | x6 | x6 | x6 | x6 | x6 | %268
 x6 | x6 | x6 | x6 | x6 | x6 | x6 | x6 | x6 | x6 | x6 | x6 | x6 | x6 | x6 | x6 | x6 ::[M:3/8] x | %286
 x3 | x3 | x3 | x3 | x3 | x3 | x3 | x3 | x3 | x3 | x3 | B,B,,^C,- | C,^C,D, | D,D,E, | x3 | x2 :: %302
 x | x3 | x3 | x3 | x3 | x3 | x3 | x3 | x3 | x3 | x3 | x3 | x3 | x3 | x3 | x3 | x3 | x3 | x3 | x3 | %322
 x3 | x3 | x3 | x3 | x3 | x3 | x3 | x3 | x3 | x3 | x3 | x3 | x2 ::[M:6/8] x | x6 | x6 | x6 | x6 | %340
 x6 | x6 | x6 | x6 | x6 | x6 | x6 | x6 | x6 | x6 | x6 | x6 | x6 | x6 | x6 | x6 | x6 | x6 | x6 | %359
 x6 | x6 | x6 | x6 | x6 | x6 | x6 | x6 | x5 :: A, | .D,.G, z z/!>(! G,/F,/E,/F,/D,/!>)! | %370
 B,,/^C,<PC,B,,/4C,/4 D,/C,/D,/E,/F,/D,/ | E,/D,/E,/F,/G,/E,/ .F,.D,.G, | %372
 z/ D,/C,/B,,/C,/A,,/ B,,/E,/D,/^C,/D,/B,,/ | ^C,P^D,3/2C,/4D,/4 E,/F,<PF,E,/4F,/4 | %374
 .G,.E, z .A,.D, z | .G,,.A,, z .D,.B,, z | z/ B,,/A,,/G,,/A,,/F,,/ G,,A,,B,, | x6 | x6 | x6 | x6 | %381
 x6 | x6 | x6 | x6 | x6 | x6 | x6 | x6 | x6 | z3 z z D, | x6 | x6 | x6 | x6 | x6 | x6 | %397
 E,,/F,,<PF,,E,,/4F,,/4 G,,.G,,,G,, | A,,/B,,<PB,,A,,/4B,,/4 A,,P^C,3/2B,,/4C,/4 | x6 | %400
 G,B,,,D,, G,,,2 :| %401
V:5
 x6 | x6 | x6 | x6 | x6 | x6 | x6 | x6 | x6 | x6 | x6 | x6 | x6 | x6 | x6 | x6 | x6 | x6 | x6 | %19
 x6 | x6 | x6 | x6 | x6 | x6 | x6 | x6 | x6 | x6 | x6 | x6 | x6 | x6 | x6 | x6 | x6 | x6 | x6 | %38
 x6 | x6 | x6 | x6 | x6 | x6 | x6 | x6 | x6 | x6 | x6 | x6 | x6 | x6 | x6 | x6 | x6 | x6 | x6 | %57
 x6 | x6 | x6 | x6 | x6 | x6 | x6 | x6 | x6 | x6 | x6 | x6 | x6 | x6 | x6 | x6 | x6 | x6 | x6 | %76
 x6 | A, G,F,E,D,C, | x6 | x6 | x6 | x6 | x6 | x6 | x6 | x6 | x6 | x6 | x6 | x6 | x6 | x6 | x6 | %93
 x6 | x6 |][M:4/4] x/ | x8 | x8 | x8 | x8 | x8 | x8 | x8 | x8 | x8 | x8 | x8 | x2 z2 x7/2 :: x/ | %109
 x8 | x8 | x8 | x8 | x8 | x8 | x8 | x8 | x8 | x8 | x8 | x8 | x8 | x8 | x8 | x15/2 ::[M:3/8] x3/2 | %126
 x3 | x3 | x3 | x3 | x3 | x3 | x3 | x3 | x3 | x3 | x3 | x3 | x3 | x3 | x3 | x3 | x3 | x3 | x3 | %145
 x3 | x3 | x3 | x3 | x3 | x3 | x3 | x3 | x3 | x3 | x3 | x3 | x3/2 :: x3/2 | x3 | x3 | x3 | x3 | %163
 x3 | x3 | x3 | x3 | x3 | x3 | x3 | x3 | x3 | x3 | x3 | x3 | x3 | x3 | x3 | x3 | x3 | x3 | x3 | %182
 x3 | x3 | x3 | x3 | x3 | x3 | x3 | x3 | x3/2 ::[M:3/4] x5/2 | x6 | x6 | x6 | x6 | x6 | x6 | x6 | %199
 x6 | x6 | x6 | x6 | x6 | x6 | x6 | x6 | x3 :: x5/2 | x6 | x6 | x6 | x6 | x6 | x6 | x6 | x6 | x6 | %218
 x6 | x6 | x6 | x6 | x6 | x6 | x6 | x6 | x6 | x6 | x6 | x6 | x6 | x6 | x7/2 ::[M:3/4] x6 | x6 | %235
 x6 | x6 | x6 | x6 | x6 | x6 | x6 | x6 | x6 | x6 :: x6 | x6 | x6 | x6 | x6 | x6 | x6 | x6 | x6 | %254
 x6 | x6 | x6 | x6 | x6 | x6 | x6 | x6 | x6 | x6 | x6 | x6 | x6 | x6 | x6 | x6 | x6 | x6 | x6 | %273
 x6 | x6 | x6 | x6 | x6 | x6 | x6 | x6 | x6 | x6 | x6 | x6 ::[M:3/8] x | x3 | x3 | x3 | x3 | x3 | %291
 x3 | x3 | x3 | x3 | x3 | x3 | x3 | x3 | x3 | x3 | x2 :: x | x3 | x3 | x3 | x3 | x3 | x3 | x3 | %310
 x3 | x3 | x3 | x3 | x3 | x3 | x3 | x3 | x3 | x3 | x3 | x3 | x3 | x3 | x3 | x3 | x3 | x3 | x3 | %329
 x3 | x3 | x3 | x3 | x3 | x2 ::[M:6/8] x | x6 | x6 | x6 | x6 | x6 | x6 | x6 | x6 | x6 | x6 | x6 | %347
 x6 | x6 | x6 | x6 | x6 | x6 | x6 | x6 | x6 | x6 | x6 | x6 | x6 | x6 | x6 | x6 | x6 | x6 | x6 | %366
 x6 | x5 :: x | x6 | x6 | x6 | x6 | x6 | x6 | x6 | x6 | x6 | x6 | x6 | x6 | x6 | x6 | x6 | x6 | %385
 x6 | x6 | x6 | x6 | x6 | x6 | x6 | x6 | x6 | x6 | x6 | x6 | x6 | x6 | x6 | x5 :| %401

